X: 2
T: The Dingle Regatta
R: slide
M: 12/8
L: 1/8
K: Dmaj
|: gbg dgd | BdB GBG | FAF DEF | GA_B =Bde | gbg dgd | BdB GBG | FAF DEF | G3 G3 :|


Tune 23	Setting 24671

